svgs/app_lounge.svg

<svg viewBox="0 0 192 192" xml:space="preserve" style="fill-rule:evenodd;clip-rule:evenodd;stroke-linejoin:round;stroke-miterlimit:2" xmlns="http://www.w3.org/2000/svg"><path d="M283.295 136.103h49.41l10.977 22.454a6 6 0 0 0 5.39 3.365h29.409c3.972 0 6.801-1.942 8.332-4.676 1.308-2.336 1.764-5.582.212-9.225a8.273 8.273 0 0 0-.096-.215L332.863 33.512a5.998 5.998 0 0 0-5.625-3.431 6.753 6.753 0 0 0-.202-.003h-38.167l-.155.002a5.998 5.998 0 0 0-5.577 3.432l-54.066 114.294a8.273 8.273 0 0 0-.096.215c-1.552 3.643-1.096 6.889.212 9.225 1.531 2.734 4.36 4.676 8.332 4.676h29.409a6 6 0 0 0 5.39-3.365l10.977-22.454Zm91.36 13.819h-21.837l-37.883-77.49 12.196-22.975 47.524 100.465Zm-133.31 0 47.524-100.465 12.196 22.975-37.883 77.49h-21.837Zm85.494-25.819-6.464-13.221h-24.75l-6.464 13.221h37.678Zm-25.348-25.221h13.018L308 85.569l-6.509 13.313Zm15.971-56.804h-18.924L308 59.903l9.462-17.825Z" style="fill-rule:evenodd;clip-rule:evenodd;stroke-linejoin:round;stroke-miterlimit:2" transform="translate(-212)"/></svg>

<?xml version="1.0" encoding="UTF-8" standalone="no"?>
<svg
   width="100%"
   height="100%"
   viewBox="0 0 192 192"
   version="1.1"
   xml:space="preserve"
   style="fill-rule:evenodd;clip-rule:evenodd;stroke-linejoin:round;stroke-miterlimit:2;"
   id="svg314"
   sodipodi:docname="app_lounge.svg"
   inkscape:version="1.2.1 (9c6d41e410, 2022-07-14)"
   xmlns:inkscape="http://www.inkscape.org/namespaces/inkscape"
   xmlns:sodipodi="http://sodipodi.sourceforge.net/DTD/sodipodi-0.dtd"
   xmlns="http://www.w3.org/2000/svg"
   xmlns:svg="http://www.w3.org/2000/svg"><defs
   id="defs318" /><sodipodi:namedview
   id="namedview316"
   pagecolor="#ffffff"
   bordercolor="#000000"
   borderopacity="0.25"
   inkscape:showpageshadow="2"
   inkscape:pageopacity="0.0"
   inkscape:pagecheckerboard="0"
   inkscape:deskcolor="#d1d1d1"
   showgrid="false"
   inkscape:zoom="5.3489583"
   inkscape:cx="95.906524"
   inkscape:cy="95.906524"
   inkscape:window-width="1274"
   inkscape:window-height="1303"
   inkscape:window-x="1282"
   inkscape:window-y="36"
   inkscape:window-maximized="0"
   inkscape:current-layer="svg314" />
    <path
   d="M283.295,136.103L332.705,136.103L343.682,158.557C344.689,160.616 346.78,161.922 349.072,161.922L378.481,161.922C382.453,161.922 385.282,159.98 386.813,157.246C388.121,154.91 388.577,151.664 387.025,148.021C386.994,147.949 386.962,147.877 386.929,147.806L332.863,33.512C331.893,31.46 329.847,30.132 327.578,30.08C327.464,30.077 327.351,30.078 327.238,30.081C327.171,30.079 327.104,30.078 327.036,30.078L288.869,30.078C288.817,30.078 288.765,30.079 288.714,30.08C288.617,30.077 288.52,30.077 288.422,30.08C286.153,30.132 284.107,31.46 283.137,33.512L229.071,147.806C229.038,147.877 229.006,147.949 228.975,148.021C227.423,151.664 227.879,154.91 229.187,157.246C230.718,159.98 233.547,161.922 237.519,161.922L266.928,161.922C269.22,161.922 271.311,160.616 272.318,158.557L283.295,136.103ZM374.655,149.922L352.818,149.922L314.935,72.432L327.131,49.457L374.655,149.922ZM241.345,149.922L288.869,49.457L301.065,72.432L263.182,149.922L241.345,149.922ZM326.839,124.103L320.375,110.882L295.625,110.882L289.161,124.103L326.839,124.103ZM301.491,98.882L314.509,98.882L308,85.569L301.491,98.882ZM317.462,42.078L298.538,42.078L308,59.903L317.462,42.078Z"
   id="path308"
   style="fill-rule:evenodd;clip-rule:evenodd;stroke-linejoin:round;stroke-miterlimit:2"
   transform="translate(-212)"
   inkscape:label="app_lounge" />
</svg>
